public/img/index_features/llm-observability.svg

<svg width="24" height="24" viewBox="0 0 24 24" fill="none" xmlns="http://www.w3.org/2000/svg">
<path d="M12.983 21.186L14.034 15.628C14.1086 15.2329 14.3007 14.8694 14.585 14.585C14.8694 14.3007 15.2329 14.1086 15.628 14.034L21.186 12.983C21.4154 12.9402 21.6226 12.8184 21.7717 12.6389C21.9208 12.4594 22.0024 12.2334 22.0024 12C22.0024 11.7666 21.9208 11.5406 21.7717 11.3611C21.6226 11.1816 21.4154 11.0598 21.186 11.017L15.628 9.966C15.2329 9.89135 14.8694 9.69932 14.585 9.41497C14.3007 9.13062 14.1086 8.76715 14.034 8.372L12.983 2.814C12.9402 2.5846 12.8184 2.37741 12.6389 2.22832C12.4594 2.07922 12.2334 1.9976 12 1.9976C11.7666 1.9976 11.5406 2.07922 11.3611 2.22832C11.1816 2.37741 11.0598 2.5846 11.017 2.814L9.966 8.372C9.89135 8.76715 9.69932 9.13062 9.41497 9.41497C9.13062 9.69932 8.76715 9.89135 8.372 9.966L2.814 11.017" stroke="white" stroke-width="1.6" stroke-linecap="round" stroke-linejoin="round"/>
<path d="M1.91667 17.4167C1.91667 17.4167 3.29167 14.2084 6.5 14.2084C9.70833 14.2084 11.0833 17.4167 11.0833 17.4167" stroke="white" stroke-width="1.6" stroke-linecap="round" stroke-linejoin="round"/>
<path d="M19.375 5.75C20.1344 5.75 20.75 5.13439 20.75 4.375C20.75 3.61561 20.1344 3 19.375 3C18.6156 3 18 3.61561 18 4.375C18 5.13439 18.6156 5.75 19.375 5.75Z" stroke="white" stroke-width="1.6" stroke-linecap="round" stroke-linejoin="round"/>
<path d="M5.08579 17.5858L7.91421 20.4142" stroke="white" stroke-width="1.7" stroke-linecap="round" stroke-linejoin="round"/>
<path d="M7.91421 17.5858L5.08579 20.4142" stroke="white" stroke-width="1.7" stroke-linecap="round" stroke-linejoin="round"/>
</svg>

<svg xmlns="http://www.w3.org/2000/svg" fill="none" viewBox="0 0 24 24" preserveAspectRatio="xMidYMid meet"><path stroke="#fff" stroke-linecap="round" stroke-linejoin="round" stroke-width="1.6" d="m12.983 21.186 1.051-5.558a2 2 0 0 1 1.594-1.594l5.558-1.051a1 1 0 0 0 0-1.966l-5.558-1.051a2 2 0 0 1-1.594-1.594l-1.051-5.558a1 1 0 0 0-1.966 0L9.966 8.372a2 2 0 0 1-1.594 1.594l-5.558 1.051"/><path stroke="#fff" stroke-linecap="round" stroke-linejoin="round" stroke-width="1.6" d="M1.917 17.417s1.375-3.209 4.583-3.209 4.583 3.209 4.583 3.209M19.375 5.75a1.375 1.375 0 1 0 0-2.75 1.375 1.375 0 0 0 0 2.75"/><path stroke="#fff" stroke-linecap="round" stroke-linejoin="round" stroke-width="1.7" d="m5.086 17.586 2.828 2.828m0-2.828-2.828 2.828"/></svg>
